X:1
T:Title
%%score { ( 1 3 ) | ( 2 4 ) }
L:1/8
Q:1/4=90
M:4/4
K:Db
V:1 treble nm="Grand Piano"
V:3 treble 
V:2 bass 
V:4 bass 
V:1
 D>E FD EF D2 | F>G AF [EG]A F2 | [Fd]>[Fd] [Fd][FA] [GB][Gd][FA]F | EA=GB A_GFE | D>E FD EF D2 | %5
w: Frank~L.~Bristow * * * * * *|||||
 F>G AF [EG][FA] [DF]2 | [Fd]>[Fd] [Fd][FA] [GB][Gd][FA][DF] | [FA][Fd][Gc][Ge] [Fd]2 [Fd]2 | %8
w: |||
 D>E FD[K:bass] [G,CE][A,CF] [F,D]2 | [A,DF]>[A,EG] [A,FA][A,DF] [EG][FA] [DF]2 | %10
w: ||
 [Fd]>[Fd] [Fd][FA] [GB][Gd][FA]F | EA=GB A_GFE | D>E FD[K:bass] [G,CE][A,CF] [F,D]2 | %13
w: |||
 [A,DF]>[A,EG] [A,FA][A,DF] [EG][FA] [DF]2 | [Fd]>[Fd] [Fd][FA] [GB][Gd][DFA]F | %15
w: ||
 [A,FA][Fd][Gc][Ge] [Fd]2 [Fd]2 |] %16
w: |
V:2
 [D,F,]4 [A,,G,]2 [D,F,]2 | [D,F,]->[D,-F,-E] [D,-F,-F][D,F,D] z F [D,F,D]2 | %2
 [D,A,]>[D,A,] [D,A,][D,D] [G,D][G,B,][D,D][D,A,D] | %3
 [E,A,C][E,A,C][E,B,D][E,=G,D] [A,C][_G,A,E][F,A,D][E,A,C] | [D,F,]4 [A,,G,]2 D,2 | %5
 D>[K:treble]E FD[K:bass] [A,,A,]2 [D,F,]2 | [D,A,]>[D,A,] [D,A,][D,D] [G,D][G,B,][D,D][D,A,] | %7
 [D,A,][D,A,][A,,A,][A,,A,] [D,A,]2 [D,A,]2 | [D,F,]>[D,G,D] [D,A,D][D,F,] A,,A,, D,2 | %9
 D,>D, D,D, [A,,A,][A,,A,] [D,A,]2 | [D,A,]>[D,A,] [D,A,][D,D] [G,D][G,B,][D,D][D,A,D] | %11
 [E,A,C][E,A,C][E,B,D][E,=G,D] [A,C][_G,B,E][F,A,D][E,A,C] | %12
 [D,F,]>[D,G,D] [D,A,D][D,F,] A,,A,, D,2 | D,>D, D,D, [A,,A,][A,,A,] [D,A,]2 | %14
 [D,A,]>[D,A,] [D,A,][D,D] [G,D][G,B,] z D | D,[D,A,][A,,A,][A,,A,] [D,A,]2 [D,A,]2 |] %16
V:3
 x8 | z4 A,2 z2 | x8 | x8 | x8 | x8 | x8 | x8 | x4[K:bass] x4 | x8 | x8 | x8 | x4[K:bass] x4 | x8 | %14
 x8 | x8 |] %16
V:4
 x8 | D2 z2 G,,2 z2 | x8 | x8 | x8 | [D,F,]4[K:treble][K:bass] z4 | x8 | x8 | x8 | x8 | x8 | x8 | %12
 x8 | x8 | z4 z2 D,2 | x8 |] %16

